X: 1
T: The Ballydesmond
R: polka
M: 2/4
L: 1/8
K: Gmaj
G>A Bd|gf ed|eA AB|cd/2c/2 BA|G>A Bd|gf ed|ea ef|g2 g2 :||
ae ae|ae e>f|gd gd|gd d>g|ae ae|ae e>f|ge dB|A2 A2 :||


Tune 1410	Setting 27994

